wifi-strength-2-lock.svg

<svg fill="currentColor" viewBox="0 0 24 24"><path d="M14.2 14.5v.24c-.7.6-1.2 1.5-1.2 2.46v3.04l-1 1.26C7.88 16.37 4.39 12.06.365 7 3.69 4.41 7.78 3 12 3c4.2 0 8.31 1.41 11.64 4l-2.73 3.39c-.59-.25-1.23-.39-1.91-.39-.13 0-.26.03-.39.04l2.09-2.59C18.08 5.86 15.06 5 12 5s-6.1.85-8.74 2.44l3.24 3.99C7.73 10.75 9.61 10 12 10c1.68 0 3.12.38 4.26.84-1.23.83-2.06 2.16-2.06 3.66m8.8 2.8v3.5c0 .6-.6 1.2-1.3 1.2h-5.5c-.6 0-1.2-.6-1.2-1.3v-3.5c0-.6.6-1.2 1.2-1.2v-1.5c0-1.4 1.4-2.5 2.8-2.5s2.8 1.1 2.8 2.5V16c.6 0 1.2.6 1.2 1.3m-2.5-2.8c0-.8-.7-1.3-1.5-1.3s-1.5.5-1.5 1.3V16h3z"/></svg>

<svg  viewBox="0 0 24 24" fill="currentColor"><path  d="M14.2 14.5V14.74C13.5 15.34 13 16.24 13 17.2V20.24L12 21.5C7.88 16.37 4.39 12.06 .365 7C3.69 4.41 7.78 3 12 3C16.2 3 20.31 4.41 23.64 7L20.91 10.39C20.32 10.14 19.68 10 19 10C18.87 10 18.74 10.03 18.61 10.04L20.7 7.45C18.08 5.86 15.06 5 12 5S5.9 5.85 3.26 7.44L6.5 11.43C7.73 10.75 9.61 10 12 10C13.68 10 15.12 10.38 16.26 10.84C15.03 11.67 14.2 13 14.2 14.5M23 17.3V20.8C23 21.4 22.4 22 21.7 22H16.2C15.6 22 15 21.4 15 20.7V17.2C15 16.6 15.6 16 16.2 16V14.5C16.2 13.1 17.6 12 19 12S21.8 13.1 21.8 14.5V16C22.4 16 23 16.6 23 17.3M20.5 14.5C20.5 13.7 19.8 13.2 19 13.2S17.5 13.7 17.5 14.5V16H20.5V14.5Z"/></svg>
